X:8124
T:John McKenna's
M:C|
L:1/8
R:barn dance
K:D
FG|AFAd f2f2|AFAd ~f3z|gage cAcd|(3.e.f.e (3.d.c.B AGFG|
AFAd f2f2|AFAd ~f3z|gage cAcd|e2df d2:|2 e2d2 d2ef||
g3e cAcd|e2ef (3gag ef|gage cAcd|(3.e.f.e (3.d.c.B AGFG|
AFAd f2f2|AFAd ~f3z|gage cAcd|e2df d2:||
